apps/scalable/artha.svg

<svg width="24" height="24" viewBox="0 0 24 24" fill="none" xmlns="http://www.w3.org/2000/svg">
<path opacity="0.4" d="M4.991 1C3.913 1.099 3 2.1 3 3.2V20.8C3 21.955 4.045 23 5.2 23H18.4C19.555 23 20.6 21.955 20.6 20.8V3.2C20.6 2.61652 20.3682 2.05695 19.9556 1.64436C19.5431 1.23178 18.9835 1 18.4 1H11.8V6.5L9.05 4.85L6.3 6.5V1H4.991ZM11.8 13.1H12.9C13.1917 13.1 13.4715 13.2159 13.6778 13.4222C13.8841 13.6285 14 13.9083 14 14.2V18.6H12.9V16.4H11.8V18.6H10.7V14.2C10.7 13.9083 10.8159 13.6285 11.0222 13.4222C11.2285 13.2159 11.5083 13.1 11.8 13.1ZM11.8 14.2V15.3H12.9V14.2H11.8ZM15.1 15.3H18.4V16.4L16.2 19.7H18.4V20.8H15.1V19.7L17.3 16.4H15.1V15.3Z" fill="url(#paint0_linear_38_306)"/>
<path fill-rule="evenodd" clip-rule="evenodd" d="M11.8 8.34676V1.2C11.8 1.08954 11.7104 1 11.6 1H6.49999C6.38953 1 6.29999 1.08954 6.29999 1.2V8.34676C6.29999 8.50222 6.46958 8.59824 6.60289 8.51826L8.94709 7.11174C9.01043 7.07374 9.08955 7.07374 9.15289 7.11174L11.4971 8.51826C11.6304 8.59824 11.8 8.50222 11.8 8.34676ZM12.9 13.1H11.8C11.5082 13.1 11.2285 13.2159 11.0222 13.4222C10.8159 13.6285 10.7 13.9083 10.7 14.2V18.4C10.7 18.5105 10.7895 18.6 10.9 18.6H11.6C11.7104 18.6 11.8 18.5105 11.8 18.4V16.6C11.8 16.4895 11.8895 16.4 12 16.4H12.7C12.8104 16.4 12.9 16.4895 12.9 16.6V18.4C12.9 18.5105 12.9895 18.6 13.1 18.6H13.8C13.9104 18.6 14 18.5105 14 18.4V14.2C14 13.9083 13.8841 13.6285 13.6778 13.4222C13.4715 13.2159 13.1917 13.1 12.9 13.1ZM15.3 15.3H18.2C18.3104 15.3 18.4 15.3895 18.4 15.5V16.3394C18.4 16.3789 18.3883 16.4175 18.3664 16.4504L16.4073 19.3891C16.3187 19.522 16.414 19.7 16.5737 19.7H18.2C18.3104 19.7 18.4 19.7895 18.4 19.9V20.6C18.4 20.7105 18.3104 20.8 18.2 20.8H15.3C15.1895 20.8 15.1 20.7105 15.1 20.6V19.7606C15.1 19.7211 15.1117 19.6825 15.1336 19.6496L17.0927 16.7109C17.1813 16.578 17.086 16.4 16.9263 16.4H15.3C15.1895 16.4 15.1 16.3105 15.1 16.2V15.5C15.1 15.3895 15.1895 15.3 15.3 15.3ZM12.2 14.2C11.9791 14.2 11.8 14.3791 11.8 14.6V14.9C11.8 15.1209 11.9791 15.3 12.2 15.3H12.5C12.7209 15.3 12.9 15.1209 12.9 14.9V14.6C12.9 14.3791 12.7209 14.2 12.5 14.2H12.2Z" fill="url(#paint1_linear_38_306)"/>
<defs>
<linearGradient id="paint0_linear_38_306" x1="11.8" y1="23" x2="11.8" y2="1" gradientUnits="userSpaceOnUse">
<stop stop-color="#5570FF"/>
<stop offset="1" stop-color="#4DD3FF"/>
</linearGradient>
<linearGradient id="paint1_linear_38_306" x1="12.35" y1="20.8" x2="12.35" y2="1" gradientUnits="userSpaceOnUse">
<stop stop-color="#5570FF"/>
<stop offset="1" stop-color="#4DD3FF"/>
</linearGradient>
</defs>
</svg>

<?xml version="1.0" encoding="UTF-8" standalone="no"?>
<svg
   width="24"
   height="24"
   viewBox="0 0 24 24"
   fill="none"
   version="1.1"
   id="svg5"
   sodipodi:docname="DictionaryReader.svg"
   inkscape:version="1.3.2 (091e20ef0f, 2023-11-25, custom)"
   xmlns:inkscape="http://www.inkscape.org/namespaces/inkscape"
   xmlns:sodipodi="http://sodipodi.sourceforge.net/DTD/sodipodi-0.dtd"
   xmlns="http://www.w3.org/2000/svg"
   xmlns:svg="http://www.w3.org/2000/svg">
  <sodipodi:namedview
     id="namedview5"
     pagecolor="#ffffff"
     bordercolor="#000000"
     borderopacity="0.25"
     inkscape:showpageshadow="2"
     inkscape:pageopacity="0.0"
     inkscape:pagecheckerboard="0"
     inkscape:deskcolor="#d1d1d1"
     inkscape:zoom="128"
     inkscape:cx="8.4570312"
     inkscape:cy="7.8554688"
     inkscape:window-width="1550"
     inkscape:window-height="1005"
     inkscape:window-x="184"
     inkscape:window-y="36"
     inkscape:window-maximized="1"
     inkscape:current-layer="svg5" />
  <path
     opacity="0.4"
     d="M4.991 1C3.913 1.099 3 2.1 3 3.2V20.8C3 21.955 4.045 23 5.2 23H18.4C19.555 23 20.6 21.955 20.6 20.8V3.2C20.6 2.61652 20.3682 2.05695 19.9556 1.64436C19.5431 1.23178 18.9835 1 18.4 1H11.8V6.5L9.05 4.85L6.3 6.5V1H4.991ZM11.8 13.1H12.9C13.1917 13.1 13.4715 13.2159 13.6778 13.4222C13.8841 13.6285 14 13.9083 14 14.2V18.6H12.9V16.4H11.8V18.6H10.7V14.2C10.7 13.9083 10.8159 13.6285 11.0222 13.4222C11.2285 13.2159 11.5083 13.1 11.8 13.1ZM11.8 14.2V15.3H12.9V14.2H11.8ZM15.1 15.3H18.4V16.4L16.2 19.7H18.4V20.8H15.1V19.7L17.3 16.4H15.1V15.3Z"
     fill="url(#paint0_linear_38_306)"
     id="path1" />
  <path
     fill-rule="evenodd"
     clip-rule="evenodd"
     d="M 11.8,8.34676 V 1.2 C 11.8,1.08954 11.7104,1 11.6,1 H 6.49999 c -0.11046,0 -0.2,0.08954 -0.2,0.2 v 7.14676 c 0,0.15546 0.7211523,0.3552366 0.8544623,0.2752566 L 8.94709,7.11174 c 0.06334,-0.038 0.14246,-0.038 0.2058,0 l 1.792222,1.5471871 C 11.078412,8.7389071 11.8,8.5079888 11.8,8.34676 Z M 12.9,13.1 h -1.1 c -0.2918,0 -0.5715,0.1159 -0.7778,0.3222 C 10.8159,13.6285 10.7,13.9083 10.7,14.2 v 4.2 c 0,0.1105 0.0895,0.2 0.2,0.2 h 0.7 c 0.1104,0 0.2,-0.0895 0.2,-0.2 v -1.8 c 0,-0.1105 0.0895,-0.2 0.2,-0.2 h 0.7 c 0.1104,0 0.2,0.0895 0.2,0.2 v 1.8 c 0,0.1105 0.0895,0.2 0.2,0.2 h 0.7 c 0.1104,0 0.2,-0.0895 0.2,-0.2 V 14.2 C 14,13.9083 13.8841,13.6285 13.6778,13.4222 13.4715,13.2159 13.1917,13.1 12.9,13.1 Z m 2.4,2.2 h 2.9 c 0.1104,0 0.2,0.0895 0.2,0.2 v 0.8394 c 0,0.0395 -0.0117,0.0781 -0.0336,0.111 l -1.9591,2.9387 C 16.3187,19.522 16.414,19.7 16.5737,19.7 H 18.2 c 0.1104,0 0.2,0.0895 0.2,0.2 v 0.7 c 0,0.1105 -0.0896,0.2 -0.2,0.2 h -2.9 c -0.1105,0 -0.2,-0.0895 -0.2,-0.2 v -0.8394 c 0,-0.0395 0.0117,-0.0781 0.0336,-0.111 l 1.9591,-2.9387 C 17.1813,16.578 17.086,16.4 16.9263,16.4 H 15.3 c -0.1105,0 -0.2,-0.0895 -0.2,-0.2 v -0.7 c 0,-0.1105 0.0895,-0.2 0.2,-0.2 z m -3.1,-1.1 c -0.2209,0 -0.4,0.1791 -0.4,0.4 v 0.3 c 0,0.2209 0.1791,0.4 0.4,0.4 h 0.3 c 0.2209,0 0.4,-0.1791 0.4,-0.4 v -0.3 c 0,-0.2209 -0.1791,-0.4 -0.4,-0.4 z"
     fill="url(#paint1_linear_38_306)"
     id="path2"
     sodipodi:nodetypes="ssssssccccssssssssssssssssssssssssccssssssssccssssssssssssss" />
  <defs
     id="defs5">
    <linearGradient
       id="paint0_linear_38_306"
       x1="11.8"
       y1="23"
       x2="11.8"
       y2="1"
       gradientUnits="userSpaceOnUse">
      <stop
         stop-color="#5570FF"
         id="stop2" />
      <stop
         offset="1"
         stop-color="#4DD3FF"
         id="stop3" />
    </linearGradient>
    <linearGradient
       id="paint1_linear_38_306"
       x1="12.35"
       y1="20.8"
       x2="12.35"
       y2="1"
       gradientUnits="userSpaceOnUse">
      <stop
         stop-color="#5570FF"
         id="stop4" />
      <stop
         offset="1"
         stop-color="#4DD3FF"
         id="stop5" />
    </linearGradient>
  </defs>
</svg>
